material/.icons/material/wifi-strength-4-alert.svg

<svg xmlns="http://www.w3.org/2000/svg" viewBox="0 0 24 24"><path d="M12 3C7.79 3 3.7 4.41.38 7 4.41 12.06 7.89 16.37 12 21.5c2.45-3.05 4.68-5.82 7-8.72V8h3.84c.25-.3.57-.71.81-1C20.32 4.41 16.22 3 12 3m9 7v8h2v-8m-2 10v2h2v-2"/></svg>

<?xml version="1.0" encoding="UTF-8"?><!DOCTYPE svg PUBLIC "-//W3C//DTD SVG 1.1//EN" "http://www.w3.org/Graphics/SVG/1.1/DTD/svg11.dtd"><svg xmlns="http://www.w3.org/2000/svg" xmlns:xlink="http://www.w3.org/1999/xlink" version="1.1" id="mdi-wifi-strength-4-alert" width="24" height="24" viewBox="0 0 24 24"><path d="M12,3C7.79,3 3.7,4.41 0.38,7C4.41,12.06 7.89,16.37 12,21.5C14.45,18.45 16.68,15.68 19,12.78V8H22.84C23.09,7.7 23.41,7.29 23.65,7C20.32,4.41 16.22,3 12,3M21,10V18H23V10M21,20V22H23V20" /></svg>
